X:67
T:Mikaelidagen
R:sl\"angpolska
A:G\"astrikland
Z:id:hn-sp-67
M:3/4
L:1/16
K:Dm =b
D2E2 E2F2 D2E2 | F2G2 A4 F2F2 | A2d2 c4 A4 | G2F2 A8 :|
w:R\"att nu lid-er det mot Mi-ka-e-li, d{\aa} har jag tj\"an-at ut mitt {\aa}r
|: A2B2 c4 G3E | (FE)FG A4 F3D | D2E2 (F2A2) (A2G2) | E2F2 D8 :|
w:N\"ar de and-ra de gr{\aa}_ta och s\"or-ja, s{\aa} f\"al-ler jag_ alls_ in-gen t{\aa}r
<end>
<start>
